svg/icon/ethos.svg

<svg height="32" viewBox="0 0 32 32" width="32" xmlns="http://www.w3.org/2000/svg" xmlns:xlink="http://www.w3.org/1999/xlink"><defs><linearGradient id="a" x1="50%" x2="50%" y1="0%" y2="100%"><stop offset="0" stop-color="#fff" stop-opacity=".5"/><stop offset="1" stop-opacity=".5"/></linearGradient><circle id="b" cx="16" cy="15" r="15"/><filter id="c" height="111.7%" width="111.7%" x="-5.8%" y="-4.2%"><feOffset dy=".5" in="SourceAlpha" result="shadowOffsetOuter1"/><feGaussianBlur in="shadowOffsetOuter1" result="shadowBlurOuter1" stdDeviation=".5"/><feComposite in="shadowBlurOuter1" in2="SourceAlpha" operator="out" result="shadowBlurOuter1"/><feColorMatrix in="shadowBlurOuter1" values="0 0 0 0 0   0 0 0 0 0   0 0 0 0 0  0 0 0 0.199473505 0"/></filter><filter id="d" height="116.7%" width="117.5%" x="-8.8%" y="-6%"><feOffset dy=".5" in="SourceAlpha" result="shadowOffsetOuter1"/><feGaussianBlur in="shadowOffsetOuter1" result="shadowBlurOuter1" stdDeviation=".5"/><feColorMatrix in="shadowBlurOuter1" result="shadowMatrixOuter1" values="0 0 0 0 0   0 0 0 0 0   0 0 0 0 0  0 0 0 0.204257246 0"/><feMerge><feMergeNode in="shadowMatrixOuter1"/><feMergeNode in="SourceGraphic"/></feMerge></filter></defs><g fill="none" fill-rule="nonzero"><g><use fill="#000" filter="url(#c)" xlink:href="#b"/><use fill="#00ffba" fill-rule="evenodd" xlink:href="#b"/><use fill="url(#a)" fill-rule="evenodd" xlink:href="#b"/><circle cx="16" cy="15" r="14.5" stroke="#000" stroke-opacity=".097"/></g><g fill="#fff" filter="url(#d)" transform="translate(6 5)"><path d="m4.87099031 4.90417743c-.56579065.57833391-.64815679 1.47607168-.19426703 2.14827012.18619745.27568692.44807985.4917078.75414585.62207792.21037753.08887142.43655778.13427058.66493507.13346654 1.2083916 0 2.18781218.98011988 2.18781218 2.18881119 0 1.2086913-.97902098 2.1885115-2.18781218 2.1885115-2.46285763.0013565-4.68373986-1.4818179-5.62607488-3.75726821-.94233502-2.27545034-.42032862-4.89454054 1.32237857-6.6348397.00882293-.00882809.01770247-.01756498.02663744-.02621069 1.43012075-1.41458424 3.46795093-2.03139551 5.44380831-1.6457448 1.02338201.19974519 1.96104282.65492978 2.73745686 1.30421026-1.36573606 1.14183331-2.18293167 2.84530931-2.18172878 4.67234064 0 1.20879121.97972028 2.18851149 2.18781218 2.18851149.0094973 0 .0189804-.00006055.0284491-.00018128-.013715.00025368-.0274608.00038108-.04123631.00038108-1.2080919 0-2.18781218-.97972028-2.18781218-2.18851149.00138146-.3402515-.09993745-.6730023-.2907093-.95474526-.18620595-.27567919-.44808581-.49169799-.75414585-.62207792-.42543659-.17792424-.90443354-.17792424-1.32987013 0-.20328949.08625876-.38799434.21098966-.54395604.36733267-.00525429.00525428-.01052866.01047626-.01582288.01566594zm14.63949919 6.62799037c.9507558 2.2534639.4621006 4.857029-1.2410589 6.6123876h-.0004995c-1.7258474 1.7789314-4.358324 2.3330735-6.6548721 1.400865-2.29654817-.9322084-3.79800933-3.164387-3.79567738-5.6429229 0-1.2086913.97972028-2.1887113 2.18781218-2.1887113s2.1878122.9799201 2.1878122 2.1887113c-.0010779.3402069.1002144.6728702.2907093.9547453.1862144.2756714.4480918.4916881.7541458.6220779.4294424.1795711.9132656.1777694 1.3413587-.004995.2065392-.0896297.3934866-.2189113.5502497-.3805195.1509756-.1553385.2712044-.3378341.3543457-.5378621.2174618-.5296239.1566959-1.132787-.162038-1.6083917-.1862017-.275683-.4480828-.4917028-.7541458-.6220779-.2103816-.0888582-.4365592-.1342568-.6649351-.1334665-1.2080919 0-2.1878122-.9799201-2.1878122-2.1887113 0-1.20879121.979021-2.18851149 2.1878122-2.18851149 2.446568-.00158313 4.655835 1.46319193 5.6067932 3.71738259z"/><path d="m9.99360639 11.7136863c1.20839161 0 2.18811191.98002 2.18791211 2.1887113.0016299 2.4823775-1.5048721 4.7168509-3.8067205 5.6462027-2.30184842.9293518-4.93745603.3672201-6.65981299-1.4204285-1.69594231-1.7575502-2.17710355-4.3586253-1.22211775-6.6065588.9549858-2.24793355 3.16115987-3.70735254 5.60353634-3.70682779 1.2080919 0 2.18781218.97992008 2.18781218 2.18871129 0 1.2087912-.97902097 2.1885115-2.18781218 2.1885115-.34012437-.00105-.67269325.1002801-.95444556.2908092-.27568747.1863603-.49164375.4484219-.62187812.7546453-.17582292.4205017-.17794216.8935243-.00589411 1.3155845.08230837.1993583.20158846.3813461.35154846.5363636l.0011988.0012987c.44820802.4658606 1.1212626.6383018 1.73826174.4453546.15815364-.0491763.30818714-.1214159.44525474-.2143856.27573176-.186182.49170784-.4481636.62187812-.7543456.08870275-.2103945.13409521-.4365074.13346654-.6648352 0-1.2087912.97902097-2.1888112 2.18781218-2.1888112zm9.32607391-8.39540458c.9674293 1.8873637.8831941 4.14212014-.2223613 5.95203952-1.1055555 1.80991936-3.0731592 2.91425526-5.1940223 2.91519326-1.2080919 0-2.1878122-.9801199-2.1878122-2.1888112 0-1.20869131.979021-2.18851149 2.1878122-2.18851149.1727258.00034337.3445063-.02549107.5094905-.07662338.158135-.04922383.3081617-.12146017.4452548-.21438561.2756737-.18624588.491634-.44820841.6218781-.75434566.1949229-.46587861.1753815-.99386095-.0534466-1.44405594-.1205826-.23421726-.2931499-.43774417-.5044955-.595005-.4381532-.32617605-1.0060304-.42274747-1.5273726-.25974026-.1580774.04916612-.3080417.12137116-.445055.21428572-.2757356.18617775-.4917127.44816062-.6218781.75434565-.0888713.21045792-.1343677.43668294-.1337662.66513487 0 1.20879121-.9797203 2.18851149-2.1878122 2.18851149s-2.18781218-.97972028-2.18781218-2.18851149c-.00151505-2.30115866 1.29524271-4.40631435 3.35108918-5.44015602 2.0558466-1.03384168 4.519038-.81948484 6.3653943.55394223.0015984.0010989.0028971.0023976.0043956.00359641.7460827.55611935 1.3551127 1.27548765 1.7805195 2.1030969z" opacity=".7"/></g></g></svg>

<svg xmlns="http://www.w3.org/2000/svg" xmlns:xlink="http://www.w3.org/1999/xlink" width="32" height="32" viewBox="0 0 32 32">
  <defs>
    <linearGradient id="ethos-c" x1="50%" x2="50%" y1="0%" y2="100%">
      <stop offset="0%" stop-color="#FFF" stop-opacity=".5"/>
      <stop offset="100%" stop-opacity=".5"/>
    </linearGradient>
    <circle id="ethos-b" cx="16" cy="15" r="15"/>
    <filter id="ethos-a" width="111.7%" height="111.7%" x="-5.8%" y="-4.2%" filterUnits="objectBoundingBox">
      <feOffset dy=".5" in="SourceAlpha" result="shadowOffsetOuter1"/>
      <feGaussianBlur in="shadowOffsetOuter1" result="shadowBlurOuter1" stdDeviation=".5"/>
      <feComposite in="shadowBlurOuter1" in2="SourceAlpha" operator="out" result="shadowBlurOuter1"/>
      <feColorMatrix in="shadowBlurOuter1" values="0 0 0 0 0   0 0 0 0 0   0 0 0 0 0  0 0 0 0.199473505 0"/>
    </filter>
    <filter id="ethos-d" width="117.5%" height="116.7%" x="-8.8%" y="-6%" filterUnits="objectBoundingBox">
      <feOffset dy=".5" in="SourceAlpha" result="shadowOffsetOuter1"/>
      <feGaussianBlur in="shadowOffsetOuter1" result="shadowBlurOuter1" stdDeviation=".5"/>
      <feColorMatrix in="shadowBlurOuter1" result="shadowMatrixOuter1" values="0 0 0 0 0   0 0 0 0 0   0 0 0 0 0  0 0 0 0.204257246 0"/>
      <feMerge>
        <feMergeNode in="shadowMatrixOuter1"/>
        <feMergeNode in="SourceGraphic"/>
      </feMerge>
    </filter>
  </defs>
  <g fill="none" fill-rule="evenodd">
    <g fill-rule="nonzero">
      <use fill="#000" filter="url(#ethos-a)" xlink:href="#ethos-b"/>
      <use fill="#00FFBA" fill-rule="evenodd" xlink:href="#ethos-b"/>
      <use fill="url(#ethos-c)" fill-rule="evenodd" style="mix-blend-mode:soft-light" xlink:href="#ethos-b"/>
      <circle cx="16" cy="15" r="14.5" stroke="#000" stroke-opacity=".097"/>
    </g>
    <g fill="#FFF" fill-rule="nonzero" filter="url(#ethos-d)" transform="translate(6 5)">
      <path d="M4.87099031,4.90417743 C4.30519966,5.48251134 4.22283352,6.38024911 4.67672328,7.05244755 C4.86292073,7.32813447 5.12480313,7.54415535 5.43086913,7.67452547 C5.64124666,7.76339689 5.86742691,7.80879605 6.0958042,7.80799201 C7.3041958,7.80799201 8.28361638,8.78811189 8.28361638,9.9968032 C8.28361638,11.2054945 7.3045954,12.1853147 6.0958042,12.1853147 C3.63294657,12.1866712 1.41206434,10.7034968 0.46972932,8.42804649 C-0.4726057,6.15259615 0.0494006973,3.53350595 1.79210789,1.79320679 C1.80093082,1.7843787 1.80981036,1.77564181 1.81874533,1.7669961 C3.24886608,0.352411862 5.28669626,-0.264399412 7.26255364,0.121251301 C8.28593565,0.320996486 9.22359646,0.776181082 10.0000105,1.42546156 C8.63427444,2.56729487 7.81707883,4.27077087 7.81828172,6.0978022 C7.81828172,7.30659341 8.798002,8.28631369 10.0060939,8.28631369 C10.0155912,8.28631369 10.0250743,8.28625314 10.034543,8.28613241 C10.020828,8.28638609 10.0070822,8.28651349 9.99330669,8.28651349 C8.78521479,8.28651349 7.80549451,7.30679321 7.80549451,6.098002 C7.80687597,5.7577505 7.70555706,5.4249997 7.51478521,5.14325674 C7.32857926,4.86757755 7.0666994,4.65155875 6.76063936,4.52117882 C6.33520277,4.34325458 5.85620582,4.34325458 5.43076923,4.52117882 C5.22747974,4.60743758 5.04277489,4.73216848 4.88681319,4.88851149 C4.8815589,4.89376577 4.87628453,4.89898775 4.87099031,4.90417743 Z M19.5104895,11.5321678 C20.4612453,13.7856317 19.9725901,16.3891968 18.2694306,18.1445554 L18.2689311,18.1445554 C16.5430837,19.9234868 13.9106071,20.4776289 11.614059,19.5454204 C9.31751083,18.613212 7.81604967,16.3810334 7.81838162,13.9024975 C7.81838162,12.6938062 8.7981019,11.7137862 10.0061938,11.7137862 C11.2142857,11.7137862 12.194006,12.6937063 12.194006,13.9024975 C12.1929281,14.2427044 12.2942204,14.5753677 12.4847153,14.8572428 C12.6709297,15.1329142 12.9328071,15.3489309 13.2388611,15.4793207 C13.6683035,15.6588918 14.1521267,15.6570901 14.5802198,15.4743257 C14.786759,15.384696 14.9737064,15.2554144 15.1304695,15.0938062 C15.2814451,14.9384677 15.4016739,14.7559721 15.4848152,14.5559441 C15.702277,14.0263202 15.6415111,13.4231571 15.3227772,12.9475524 C15.1365755,12.6718694 14.8746944,12.4558496 14.5686314,12.3254745 C14.3582498,12.2366163 14.1320722,12.1912177 13.9036963,12.192008 C12.6956044,12.192008 11.7158841,11.2120879 11.7158841,10.0032967 C11.7158841,8.79450549 12.6949051,7.81478521 13.9036963,7.81478521 C16.3502643,7.81320208 18.5595313,9.27797714 19.5104895,11.5321678 Z"/>
      <path d="M9.99360639,11.7136863 C11.201998,11.7136863 12.1817183,12.6937063 12.1815185,13.9023976 C12.1831484,16.3847751 10.6766464,18.6192485 8.374798,19.5486003 C6.07294958,20.4779521 3.43734197,19.9158204 1.71498501,18.1281718 C0.0190427008,16.3706216 -0.462118542,13.7695465 0.492867258,11.521613 C1.44785306,9.27367945 3.65402713,7.81426046 6.0964036,7.81478521 C7.3044955,7.81478521 8.28421578,8.79470529 8.28421578,10.0034965 C8.28421578,11.2122877 7.30519481,12.192008 6.0964036,12.192008 C5.75627923,12.190958 5.42371035,12.2922881 5.14195804,12.4828172 C4.86627057,12.6691775 4.65031429,12.9312391 4.52007992,13.2374625 C4.344257,13.6579642 4.34213776,14.1309868 4.51418581,14.553047 C4.59649418,14.7524053 4.71577427,14.9343931 4.86573427,15.0894106 L4.86693307,15.0907093 C5.31514109,15.5565699 5.98819567,15.7290111 6.60519481,15.5360639 C6.76334845,15.4868876 6.91338195,15.414648 7.05044955,15.3216783 C7.32618131,15.1354963 7.54215739,14.8735147 7.67232767,14.5673327 C7.76103042,14.3569382 7.80642288,14.1308253 7.80579421,13.9024975 C7.80579421,12.6937063 8.78481518,11.7136863 9.99360639,11.7136863 Z M19.3196803,3.31828172 C20.2871096,5.20564542 20.2028744,7.46040186 19.097319,9.27032124 C17.9917635,11.0802406 16.0241598,12.1845765 13.9032967,12.1855145 C12.6952048,12.1855145 11.7154845,11.2053946 11.7154845,9.9967033 C11.7154845,8.78801199 12.6945055,7.80819181 13.9032967,7.80819181 C14.0760225,7.80853518 14.247803,7.78270074 14.4127872,7.73156843 C14.5709222,7.6823446 14.7209489,7.61010826 14.858042,7.51718282 C15.1337157,7.33093694 15.349676,7.06897441 15.4799201,6.76283716 C15.674843,6.29695855 15.6553016,5.76897621 15.4264735,5.31878122 C15.3058909,5.08456396 15.1333236,4.88103705 14.921978,4.72377622 C14.4838248,4.39760017 13.9159476,4.30102875 13.3946054,4.46403596 C13.236528,4.51320208 13.0865637,4.58540712 12.9495504,4.67832168 C12.6738148,4.86449943 12.4578377,5.1264823 12.3276723,5.43266733 C12.238801,5.64312525 12.1933046,5.86935027 12.1939061,6.0978022 C12.1939061,7.30659341 11.2141858,8.28631369 10.0060939,8.28631369 C8.798002,8.28631369 7.81828172,7.30659341 7.81828172,6.0978022 C7.81676667,3.79664354 9.11352443,1.69148785 11.1693709,0.657646176 C13.2252175,-0.376195496 15.6884089,-0.161838657 17.5347652,1.21158841 C17.5363636,1.21268731 17.5376623,1.21398601 17.5391608,1.21518482 C18.2852435,1.77130417 18.8942735,2.49067247 19.3196803,3.31828172 Z" opacity=".7"/>
    </g>
  </g>
</svg>
